PortableApps/LibreOfficePortable/App/libreoffice/help/media/icon-themes/cmd/sc_fontwork.svg

<svg viewBox="0 0 16 16" xmlns="http://www.w3.org/2000/svg"><path d="m11 8.8457816-1.097724.6211493q-.1868445.1057304-.3559453.0712338-.1613168-.0389047-.3020849-.1545273l-2.2497902-2.1551371-4.2196126 2.3876795.5093167 3.1291402q.027413.168918-.048254.352766-.067881.179441-.2469418.280765l-1.097722.621149-1.8912419-13.18501663 1.4402736-.81498337 9.5597254 8.8457807zm-8.4338685-.5218312 3.5033688-1.9823924-3.7546348-3.6143868q-.1824988-.1571011-.3998795-.3812538-.2173809-.2241523-.4487778-.4946173.087837.3625473.1495126.6748063.061675.3122587.096254.5530609z" fill="#5f5f5f"/><path d="m15.494141 8c-3.577003.0424373-10.7626427.9539956-15.39648475 7.201172a.50117728.50117728 0 1 0 .8046875.597656c4.36615795-5.8862942 11.18051825-6.7582177 14.60351525-6.798828a.50005.50005 0 1 0 -.01172-1z" fill="#4d82b8"/></svg>

<svg viewBox="0 0 16 16" xmlns="http://www.w3.org/2000/svg">
  <path
     style="fill:#5f5f5f"
     d="M 11,8.8457816 9.902276,9.4669309 Q 9.7154315,9.5726613 9.5463307,9.5381647 9.3850139,9.49926 9.2442458,9.3836374 L 6.9944556,7.2285003 2.774843,9.6161798 3.2841597,12.74532 q 0.027413,0.168918 -0.048254,0.352766 -0.067881,0.179441 -0.2469418,0.280765 L 1.8912419,14 0,0.81498337 1.4402736,0 10.999999,8.8457807 Z M 2.5661315,8.3239504 6.0695003,6.341558 2.3148655,2.7271712 Q 2.1323667,2.5700701 1.914986,2.3459174 1.6976051,2.1217651 1.4662082,1.8513001 q 0.087837,0.3625473 0.1495126,0.6748063 0.061675,0.3122587 0.096254,0.5530609 z"
     />
  <path
     style="fill:#4d82b8"
     d="M 15.494141,8 C 11.917138,8.0424373 4.7314983,8.9539956 0.09765625,15.201172 a 0.50117728,0.50117728 0 1 0 0.8046875,0.597656 C 5.2685017,9.9125338 12.082862,9.0406103 15.505859,9 a 0.50005,0.50005 0 1 0 -0.01172,-1 z"
     />
</svg>
